logos/dashlane.svg

<?xml version="1.0" encoding="UTF-8"?>
<svg width="512px" height="137px" viewBox="0 0 512 137" version="1.1" xmlns="http://www.w3.org/2000/svg" xmlns:xlink="http://www.w3.org/1999/xlink" preserveAspectRatio="xMidYMid">
    <g>
        <path d="M31.4701318,87.2908028 L31.6591251,87.3529205 L45.9581888,92.6065199 C47.0121909,92.9800435 47.6902764,93.6772729 47.7664041,94.4492352 L47.7735687,94.5947931 L47.7735687,133.967318 C47.7735687,135.638054 45.1287452,136.713611 42.8539979,136.017709 L42.6653569,135.955591 L28.3427168,130.698063 C27.2887147,130.324539 26.6106292,129.62731 26.5345015,128.855347 L26.5273369,128.709789 L26.5273369,89.3372644 C26.5273369,87.6703518 29.1907598,86.5948977 31.4701318,87.2908028 Z M4.94309645,1.69682812 L5.13178818,1.75893741 L19.4504988,7.01646619 C20.5045009,7.408481 21.1860672,8.08939462 21.2626044,8.85937344 L21.2698081,9.00473941 L21.2698081,132.493795 C21.2698081,134.160708 18.6026654,135.236162 16.3267117,134.543876 L16.13802,134.482069 L1.81537989,129.22061 C0.761377816,128.850785 0.0832922694,128.150293 0.0071645652,127.377934 L0,127.232337 L0,3.74721063 C0,2.0802981 2.66714271,1.00112413 4.94309645,1.69682812 Z M57.9938409,80.6776416 L58.1825326,80.7397509 L72.5051727,85.9972797 C73.5591748,86.3708032 74.2372603,87.0680327 74.313388,87.839995 L74.3205526,87.9855529 L74.3205526,124.269574 C74.3205526,125.936487 71.6534099,127.011941 69.3774561,126.316036 L69.1887644,126.253918 L54.8661243,120.996389 C53.8158205,120.619168 53.1344718,119.921721 53.0579474,119.149746 L53.0507444,119.004187 L53.0507444,82.7280241 C53.0507444,81.0611116 55.7178871,79.9819376 57.9938409,80.6776416 Z M253.634505,47.6110326 C257.726314,47.6110326 261.330877,48.3510684 264.448196,49.83114 C267.413555,51.1810876 269.931549,53.3500796 271.705787,56.0828054 C273.309387,58.6437034 274.194315,61.5889375 274.267751,64.6095898 C274.279565,64.8466152 274.193858,65.0781489 274.030561,65.2503538 C273.867263,65.4225586 273.640603,65.5204295 273.403285,65.5212091 L262.066984,65.5212091 C261.608159,65.5199274 261.229505,65.1619273 261.202517,64.7038952 C261.076777,62.4641408 260.412709,60.71949 259.210315,59.4699428 C257.866462,58.0710786 255.930581,57.3729563 253.402671,57.3755759 C251.304375,57.3755759 249.654029,57.8706795 248.439847,58.8648162 C247.229504,59.8631424 246.558648,61.3722051 246.628396,62.9395974 C246.611694,64.4644852 247.258407,65.9213833 248.400553,66.9318614 C249.58199,68.0373309 251.571573,69.1532787 254.369302,70.2797049 L263.729117,73.9890525 C267.59826,75.4979397 270.461479,77.5687302 272.318772,80.201424 C274.176065,82.8341178 275.103402,86.0614598 275.100783,89.8834501 C275.169021,93.1363066 274.270569,96.3362727 272.519171,99.0782314 C270.737,101.764986 268.216838,103.879902 265.261581,105.168792 C262.141642,106.591232 258.510883,107.303762 254.369302,107.306382 C247.432612,107.306382 242.00088,105.544704 238.074106,102.021347 C234.338562,98.6708842 232.373865,94.0368192 232.180015,88.1191523 C232.171477,87.8834425 232.259185,87.6543995 232.422976,87.48468 C232.586766,87.3149605 232.812547,87.2191666 233.048411,87.2193211 L244.408289,87.2193211 C244.867896,87.2186369 245.247686,87.5777111 245.272755,88.036635 C245.406355,90.7112424 246.219739,92.8318052 247.712909,94.3983234 C249.352776,96.1193979 251.597769,96.9799351 254.447889,96.9799351 C256.865776,96.9799351 258.734858,96.4416082 260.055134,95.3649543 C261.375411,94.2883004 262.03031,92.7558369 262.019831,90.7675637 C262.019831,89.0464892 261.523418,87.6620328 260.530591,86.6141945 C259.537764,85.5663562 257.74989,84.5316158 255.166969,83.5099735 L245.001627,79.5570034 C241.237268,78.1581393 238.387148,76.1554583 236.451266,73.5489604 C234.515385,70.9424626 233.547444,67.809426 233.547444,64.1498507 C233.485933,61.0787305 234.34242,58.0591359 236.007245,55.4776788 C237.735614,52.9037946 240.173382,50.8864255 243.025142,49.6700349 C246.063873,48.2973667 249.600327,47.6110326 253.634505,47.6110326 Z M511.131604,49.2260134 C511.609676,49.2260134 511.997837,49.6124134 512.000224,50.09048 L512.000224,58.8451692 C512.000224,59.3247711 511.611206,59.7135652 511.131604,59.7135652 L491.409977,59.7135652 C490.931905,59.7135603 490.543744,60.0999652 490.541581,60.5780318 L490.541581,71.6707102 C490.541581,72.1503121 490.930375,72.5391063 491.409977,72.5391063 L511.131604,72.5391063 C511.365001,72.537985 511.588933,72.6312876 511.752485,72.7977993 C511.916036,72.964311 512.005307,73.1898809 512.000224,73.4232198 L512.000224,81.938216 C512.000224,82.1681692 511.908386,82.3886473 511.745416,82.5508797 C511.582446,82.713112 511.361555,82.8037279 511.131604,82.8026826 L491.409977,82.8026826 C490.931905,82.8026777 490.543744,83.1890826 490.541581,83.6671492 L490.541581,94.3590295 C490.541579,94.5889827 490.633195,94.8094608 490.796165,94.9716932 C490.959135,95.1339255 491.180026,95.2245414 491.409977,95.2234961 L511.131604,95.2234961 C511.611206,95.2234961 512.000224,95.6122903 512.000224,96.0918921 L512.000224,104.846581 C511.997837,105.324648 511.609676,105.711048 511.131604,105.711048 L478.340814,105.711048 C477.863382,105.711048 477.476347,105.324013 477.476347,104.846581 L477.476347,50.09048 C477.476347,49.6130483 477.863382,49.2260134 478.340814,49.2260134 L511.131604,49.2260134 Z M439.184405,49.2260134 C439.502624,49.2275333 439.794767,49.4022167 439.946708,49.6818231 L457.672203,82.7319535 C457.862023,83.0798544 458.263304,83.2551021 458.647514,83.1578924 C459.031724,83.0606827 459.301375,82.715681 459.302901,82.3193672 L459.302901,50.0983388 C459.305052,49.6218011 459.69083,49.2360236 460.167368,49.2338722 L470.937836,49.2338722 C471.167787,49.2328269 471.388678,49.3234428 471.551648,49.4856751 C471.714617,49.6479075 471.806232,49.8683856 471.806232,50.0983388 L471.806232,104.834793 C471.806232,105.064746 471.714617,105.285224 471.551648,105.447457 C471.388678,105.609689 471.167787,105.700305 470.937836,105.699646 L458.953185,105.699646 C458.627997,105.70894 458.324676,105.536046 458.167306,105.251309 L440.437882,72.2011784 C440.252255,71.8538286 439.855316,71.6758526 439.472487,71.7683234 C439.089657,71.8607943 438.817722,72.2003343 438.811113,72.5941178 L438.811113,104.815146 C438.80895,105.293213 438.420788,105.679618 437.942717,105.679613 L427.172249,105.679613 C426.694817,105.679613 426.307782,105.292578 426.307782,104.815146 L426.307782,50.09048 C426.307782,49.6130483 426.694817,49.2260134 427.172249,49.2260134 L439.184405,49.2260134 Z M212.049731,49.2260007 C212.288249,49.2260007 212.503542,49.3589831 212.611485,49.5654402 L212.650929,49.6582467 L231.417713,104.858369 L231.401995,104.858369 C231.467762,105.052414 231.435685,105.266253 231.316947,105.432923 C231.217646,105.571815 231.067692,105.664177 230.901897,105.691106 L230.800798,105.699261 L218.548949,105.699261 C218.200934,105.698607 217.891042,105.490926 217.754737,105.178455 L217.715917,105.070557 L215.358281,96.7088069 L196.56792,96.7088069 L194.210284,105.070557 C194.115262,105.405764 193.830097,105.647332 193.491799,105.691858 L193.377252,105.699261 L181.125403,105.699261 C180.920517,105.699261 180.728416,105.599594 180.609254,105.432923 C180.510305,105.294031 180.471538,105.122383 180.499424,104.956731 L180.524206,104.858369 L199.212402,49.6582467 C199.287044,49.43134 199.482349,49.2692693 199.712888,49.2334454 L199.813599,49.2260007 L212.049731,49.2260007 Z M401.910177,49.2338595 C402.14904,49.2323596 402.364873,49.3658795 402.472246,49.5730083 L402.511374,49.6661055 L421.278158,104.858369 L421.262441,104.858369 C421.328207,105.052414 421.29613,105.266253 421.177392,105.432923 C421.078091,105.571815 420.928137,105.664179 420.762342,105.691109 L420.661243,105.699264 L408.409394,105.699264 C408.061379,105.698607 407.751487,105.490926 407.615182,105.178455 L407.576362,105.070557 L405.218726,96.7088069 L386.432295,96.7088069 L384.074658,105.070557 C383.978239,105.406313 383.691829,105.64779 383.352558,105.691981 L383.237698,105.699264 L370.989777,105.699264 C370.784198,105.699987 370.590924,105.601386 370.470843,105.434521 C370.370941,105.295467 370.33186,105.123274 370.359797,104.957064 L370.384651,104.858369 L389.072847,49.6661055 C389.147489,49.4391987 389.342794,49.2771281 389.573334,49.2413042 L389.674045,49.2338595 L401.910177,49.2338595 Z M153.92614,49.2260044 C159.783556,49.2260044 164.891768,50.5030663 169.250775,53.0571723 C173.474535,55.4733903 176.939456,59.0213286 179.255012,63.3011017 C183.881065,72.186546 183.881065,82.7701623 179.255012,91.6556066 C176.954154,95.9471938 173.485772,99.5000373 169.250775,101.903465 C164.897007,104.428756 159.788795,105.69141 153.92614,105.69141 L133.493292,105.69141 C133.263342,105.692446 133.04245,105.60183 132.87948,105.439598 C132.716511,105.277366 132.624896,105.056888 132.624896,104.826934 L132.624896,50.09048 C132.624896,49.8605268 132.716511,49.6400487 132.87948,49.4778163 C133.04245,49.315584 133.263342,49.2249682 133.493292,49.2260044 L153.92614,49.2260044 Z M344.607828,48.3615378 C344.837419,48.360496 345.057911,48.451236 345.220258,48.6135833 C345.382605,48.7759306 345.473345,48.9964221 345.472295,49.2260134 L345.472295,93.2116465 C345.474458,93.6897132 345.862619,94.0761181 346.340691,94.0761132 L365.59472,94.0761132 C366.072791,94.0761083 366.460953,94.4625131 366.463116,94.9405798 L366.463116,104.826934 C366.463116,105.056888 366.371502,105.277366 366.208532,105.439598 C366.045562,105.60183 365.824671,105.692446 365.59472,105.69141 L333.279386,105.69141 C333.049795,105.692452 332.829303,105.601712 332.666956,105.439364 C332.504609,105.277017 332.413869,105.056526 332.41491,104.826934 L332.41491,49.2260134 C332.413869,48.9964221 332.504609,48.7759306 332.666956,48.6135833 C332.829303,48.451236 333.049795,48.360496 333.279386,48.3615378 L344.607828,48.3615378 Z M292.999171,48.7937801 C293.440468,48.7937801 293.805155,49.1230203 293.860351,49.549685 L293.867567,49.6582467 L293.867567,71.1873948 C293.866522,71.4173457 293.957138,71.638237 294.11937,71.8012068 C294.254564,71.9370149 294.430206,72.0232723 294.618073,72.0482509 L294.732034,72.0557908 L312.520399,72.0557908 C312.963109,72.0557908 313.328443,71.7245106 313.382029,71.2963246 L313.388795,71.1873948 L313.388795,50.09048 C313.388795,49.6497738 313.718576,49.2860921 314.144825,49.2327488 L314.253262,49.2260134 L325.589563,49.2260134 C326.030269,49.2260134 326.39395,49.5557946 326.447294,49.9820432 L326.454029,50.09048 L326.454029,104.826934 C326.454029,105.267641 326.124248,105.631322 325.697999,105.684666 L325.589563,105.691401 L314.253262,105.691401 C313.812555,105.691401 313.448874,105.36162 313.395531,104.935371 L313.388795,104.826934 L313.388795,84.1308177 C313.386798,83.6895254 313.055904,83.3263355 312.628992,83.2730751 L312.520399,83.2663511 L294.732034,83.2663511 C294.291328,83.2663511 293.927646,83.5961323 293.874303,84.0223808 L293.867567,84.1308177 L293.867567,104.826934 C293.86557,105.268227 293.534676,105.631412 293.107765,105.684676 L292.999171,105.691401 L281.66287,105.691401 C281.222989,105.689415 280.860443,105.360552 280.805577,104.93516 L280.798404,104.826934 L280.798404,49.6582467 C280.80039,49.2183657 281.129252,48.8558189 281.554644,48.8009532 L281.66287,48.7937801 L292.999171,48.7937801 Z M84.5094404,36.468033 L84.6980814,36.5301423 L99.0207214,41.7876711 L99.0403684,41.7876711 C100.09437,42.1611946 100.775937,42.8584241 100.852474,43.6303864 L100.859678,43.7759443 L100.859678,103.369129 C100.859678,105.036042 98.192535,106.111496 95.9165812,105.415591 L95.7278895,105.353473 L81.4052494,100.095944 C80.3512473,99.726119 79.6731618,99.0291071 79.5970341,98.2571576 L79.5898695,98.1116005 L79.5898695,38.5184155 C79.5898695,36.851503 82.2346931,35.772329 84.5094404,36.468033 Z M152.711957,60.2047394 L146.566385,60.2047394 C146.089848,60.2068909 145.70407,60.5926683 145.701919,61.069206 L145.701919,93.8560671 C145.701919,94.3334988 146.088954,94.7205337 146.566385,94.7205337 L152.711957,94.7205337 C156.261509,94.7205337 159.285833,93.9267962 161.784927,92.3393211 C164.231851,90.8166051 166.180732,88.6123352 167.392172,85.9972797 C169.865,80.5652244 169.865,74.3286136 167.392172,68.8965583 C166.17677,66.2861596 164.22862,64.0854464 161.784927,62.5623756 C159.285833,60.9906182 156.261509,60.2047394 152.711957,60.2047394 Z M205.970959,65.2056028 C205.717217,65.2056028 205.491054,65.3557542 205.389869,65.5821837 L205.357974,65.6705261 L199.778235,85.3882237 C199.706812,85.640606 199.757835,85.9118746 199.916075,86.1210594 C200.051709,86.3003607 200.252666,86.4162417 200.472491,86.4456913 L200.583761,86.453107 L211.358158,86.453107 C211.621051,86.4547965 211.869323,86.3323031 212.027928,86.1226358 C212.163874,85.942921 212.220267,85.7172388 212.187526,85.4974103 L212.163684,85.3882237 L206.583945,65.6705261 C206.506975,65.3956381 206.25642,65.2056028 205.970959,65.2056028 Z M395.831404,65.2056028 C395.577662,65.2056028 395.351499,65.3557542 395.250314,65.5821837 L395.218419,65.6705261 L389.63868,85.3882237 L389.658327,85.3882237 C389.587761,85.6373137 389.63644,85.905039 389.790172,86.113346 C389.921942,86.2918949 390.118179,86.4095604 390.334549,86.4433127 L390.444206,86.4530894 L401.218603,86.4530894 C401.480996,86.4527593 401.728194,86.3299633 401.886983,86.121071 C402.023088,85.9420205 402.080865,85.7173094 402.050583,85.4974911 L402.028058,85.3882237 L396.44439,65.6705261 C396.36742,65.3956381 396.116865,65.2056028 395.831404,65.2056028 Z M57.9938409,15.5636497 L58.1825326,15.6257678 L72.5051727,20.8832966 C73.5591748,21.2531219 74.2372603,21.9327302 74.313388,22.7026323 L74.3205526,22.8479934 L74.3205526,59.1320149 C74.3205526,60.7989275 71.6534099,61.8781014 69.3774561,61.1823974 L69.1887644,61.1202881 L54.8661243,55.8627594 C53.8158205,55.4892358 53.1344718,54.7920064 53.0579474,54.0200441 L53.0507444,53.8744861 L53.0507444,17.5904647 C53.0507444,15.9426681 55.7178871,14.8677306 57.9938409,15.5636497 Z M31.4701318,0.219367246 L31.6591251,0.281485381 L45.9581888,5.53508477 C47.0121909,5.90860831 47.6902764,6.60583775 47.7664041,7.37780006 L47.7735687,7.52335798 L47.7735687,46.9980472 C47.7735687,48.6649597 45.1287452,49.7441337 42.8539979,49.0484297 L42.6653569,48.9863204 L28.3427168,43.7287916 C27.2887147,43.3589663 26.6106292,42.6584737 26.5345015,41.8861147 L26.5273369,41.7405184 L26.5273369,2.24618223 C26.5273369,0.598385673 29.1907598,-0.476551784 31.4701318,0.219367246 Z" fill="#10363D"></path>
    </g>
</svg>

<svg preserveAspectRatio="xMidYMid" viewBox="0 0 512 137" xmlns="http://www.w3.org/2000/svg">
  <path fill="#10363D" d="m31.47 87.29.19.063 14.298 5.254c1.054.373 1.732 1.07 1.808 1.842l.008.146v39.372c0 1.671-2.645 2.747-4.92 2.05l-.189-.061-14.322-5.258c-1.054-.373-1.732-1.07-1.808-1.843l-.008-.145V89.337c0-1.667 2.664-2.742 4.943-2.046ZM4.943 1.698l.189.062L19.45 7.016c1.055.392 1.736 1.073 1.813 1.843l.007.146v123.489c0 1.667-2.667 2.742-4.943 2.05l-.189-.062-14.323-5.261c-1.054-.37-1.732-1.07-1.808-1.843L0 127.232V3.747c0-1.667 2.667-2.746 4.943-2.05Zm53.05 78.98.19.063 14.322 5.257c1.054.374 1.732 1.071 1.808 1.843l.008.146v36.284c0 1.666-2.668 2.742-4.944 2.046l-.188-.062-14.323-5.258c-1.05-.377-1.732-1.074-1.808-1.846l-.007-.146V82.728c0-1.667 2.667-2.746 4.943-2.05Zm195.642-33.066c4.091 0 7.696.74 10.813 2.22a17.1 17.1 0 0 1 7.258 6.252 16.837 16.837 0 0 1 2.562 8.527.868.868 0 0 1-.865.911h-11.336a.868.868 0 0 1-.864-.817c-.126-2.24-.79-3.985-1.993-5.234-1.344-1.399-3.28-2.097-5.807-2.094-2.099 0-3.749.495-4.963 1.489a4.994 4.994 0 0 0-1.812 4.075 5.254 5.254 0 0 0 1.773 3.992c1.181 1.105 3.17 2.221 5.968 3.348l9.36 3.71c3.87 1.508 6.732 3.579 8.59 6.211 1.857 2.633 2.784 5.86 2.782 9.682a16.44 16.44 0 0 1-2.582 9.195 16.74 16.74 0 0 1-7.257 6.09c-3.12 1.423-6.751 2.136-10.893 2.138-6.936 0-12.368-1.761-16.295-5.285-3.735-3.35-5.7-7.984-5.894-13.902a.868.868 0 0 1 .868-.9h11.36c.46 0 .84.359.865.818.133 2.674.947 4.795 2.44 6.361 1.64 1.721 3.885 2.582 6.735 2.582 2.418 0 4.287-.538 5.607-1.615 1.32-1.077 1.975-2.61 1.965-4.597 0-1.722-.497-3.106-1.49-4.154-.992-1.048-2.78-2.082-5.363-3.104l-10.165-3.953c-3.765-1.399-6.615-3.402-8.55-6.008-1.937-2.607-2.905-5.74-2.905-9.4a15.43 15.43 0 0 1 2.46-8.671 16.028 16.028 0 0 1 7.018-5.808c3.039-1.373 6.575-2.059 10.61-2.059Zm257.497 1.615c.478 0 .866.386.868.864v8.755c0 .48-.389.869-.868.869H491.41a.868.868 0 0 0-.868.864v11.093c0 .48.388.868.868.868h19.722a.864.864 0 0 1 .868.884v8.515a.865.865 0 0 1-.868.865H491.41a.868.868 0 0 0-.868.864V94.36a.864.864 0 0 0 .868.864h19.722c.48 0 .868.39.868.869v8.755a.869.869 0 0 1-.868.864H478.34a.864.864 0 0 1-.865-.864V50.09c0-.477.387-.864.865-.864h32.79Zm-71.948 0c.319.002.61.176.763.456l17.725 33.05a.868.868 0 0 0 1.63-.413V50.1a.868.868 0 0 1 .865-.865h10.77a.864.864 0 0 1 .87.864v54.737a.864.864 0 0 1-.87.865h-11.984a.87.87 0 0 1-.786-.449l-17.73-33.05a.864.864 0 0 0-1.626.393v32.221a.868.868 0 0 1-.868.865h-10.77a.864.864 0 0 1-.865-.865V50.09c0-.477.387-.864.864-.864h12.012Zm-227.134 0c.238 0 .454.133.561.34l.04.092 18.767 55.2h-.016a.638.638 0 0 1-.5.833l-.101.008h-12.252a.869.869 0 0 1-.794-.52l-.04-.108-2.357-8.362h-18.79l-2.358 8.362a.865.865 0 0 1-.718.62l-.115.008h-12.252a.635.635 0 0 1-.626-.742l.025-.099 18.688-55.2a.629.629 0 0 1 .5-.425l.102-.007h12.236Zm189.86.008a.629.629 0 0 1 .562.339l.04.093 18.766 55.192h-.016a.638.638 0 0 1-.5.833l-.1.008h-12.253a.869.869 0 0 1-.794-.52l-.039-.108-2.357-8.362h-18.787l-2.357 8.362a.869.869 0 0 1-.722.621l-.115.007H370.99a.637.637 0 0 1-.63-.742l.025-.099 18.688-55.192a.629.629 0 0 1 .5-.425l.101-.007h12.236Zm-247.984-.008c5.858 0 10.966 1.277 15.325 3.831a26.123 26.123 0 0 1 10.004 10.244 30.7 30.7 0 0 1 0 28.355 25.8 25.8 0 0 1-10.004 10.247c-4.354 2.526-9.462 3.788-15.325 3.788h-20.433a.865.865 0 0 1-.868-.864V50.09a.864.864 0 0 1 .868-.864h20.433Zm190.682-.864a.86.86 0 0 1 .864.864v43.986c.002.478.39.864.869.864h19.254c.478 0 .866.387.868.865v9.886a.864.864 0 0 1-.868.864h-32.316a.86.86 0 0 1-.864-.864V49.226a.86.86 0 0 1 .864-.864h11.329Zm-51.609.432c.441 0 .806.329.861.756l.008.108v21.53a.864.864 0 0 0 .75.86l.114.008h17.788a.869.869 0 0 0 .862-.76l.007-.109V50.09c0-.44.33-.804.756-.857l.108-.007h11.337c.44 0 .804.33.857.756l.007.108v54.737c0 .44-.33.804-.756.858l-.108.006h-11.337a.865.865 0 0 1-.857-.756l-.007-.108V84.13a.869.869 0 0 0-.76-.858l-.109-.007h-17.788c-.44 0-.804.33-.858.756l-.006.109v20.696a.869.869 0 0 1-.76.858l-.109.006h-11.336a.869.869 0 0 1-.857-.756l-.008-.108V49.658a.869.869 0 0 1 .757-.857l.108-.007h11.336ZM84.51 36.468l.19.062 14.322 5.258h.02c1.053.373 1.735 1.07 1.811 1.842l.008.146v59.593c0 1.667-2.667 2.742-4.943 2.047l-.19-.063-14.322-5.257c-1.054-.37-1.732-1.067-1.808-1.839l-.007-.145V38.518c0-1.666 2.645-2.746 4.92-2.05Zm68.203 23.737h-6.146a.868.868 0 0 0-.864.864v32.787c0 .477.387.865.864.865h6.146c3.55 0 6.574-.794 9.073-2.382a14.794 14.794 0 0 0 5.607-6.342 20.637 20.637 0 0 0 0-17.1 14.85 14.85 0 0 0-5.607-6.335c-2.5-1.571-5.523-2.357-9.073-2.357Zm53.259 5c-.254 0-.48.15-.581.377l-.032.089-5.58 19.717a.837.837 0 0 0 .694 1.058l.112.007h10.774a.833.833 0 0 0 .83-.956l-.024-.109-5.58-19.717a.637.637 0 0 0-.613-.465Zm189.86 0c-.253 0-.48.15-.58.377l-.033.089-5.58 19.717h.02a.837.837 0 0 0 .677 1.055l.11.01h10.774a.84.84 0 0 0 .832-.956l-.023-.109-5.584-19.717a.637.637 0 0 0-.613-.465ZM57.994 15.565l.189.062 14.322 5.257c1.054.37 1.732 1.05 1.808 1.82l.008.145v36.284c0 1.667-2.668 2.746-4.944 2.05l-.188-.062-14.323-5.257c-1.05-.374-1.732-1.071-1.808-1.843l-.007-.146V17.59c0-1.647 2.667-2.722 4.943-2.026ZM31.47.219l.19.062 14.298 5.254c1.054.374 1.732 1.07 1.808 1.843l.008.145v39.475c0 1.667-2.645 2.746-4.92 2.05l-.189-.062-14.322-5.257c-1.054-.37-1.732-1.07-1.808-1.843l-.008-.145V2.246c0-1.648 2.664-2.723 4.943-2.027Z"/>
</svg>
